X:12602
T:The Ballydesmond Polkas No 2
R:Polka
B:Tuneworks Tunebook (https://www.tuneworks.co.uk/)
G:Tuneworks
Z:Jon Warbrick <jon.warbrick@googlemail.com>
M:2/4
L:1/8
K:G
|: "Am"cd/c/ Bc/B/ | AB/A/ G>A | "G"B/c/d ed | g2 gd | "Am"ea ge | "G"dB GA/B/ | "Am"ce "G"dB | "Am"A2 A2 :|
|: "Am"ea ag/e/ | "G"dg ge/d/ | "Am"ea ab | "Em"g2 ed | "Am"ea g/a/g/e/ | "G"dB GA/B/ | "Am"ce "G"dB | "Am"A2 A2 :|
 